Sources/FrostedUI/Resources/Icons.xcassets/speaker12.imageset/speaker-12.svg

<svg width="12" height="12" viewBox="0 0 12 12" fill="none" xmlns="http://www.w3.org/2000/svg" data-fui-icon="true">
  <g clip-path="url(#clip0_5220_433)">
    <path
      d="M7.875 0.1875C9.63541 0.1875 11.0625 1.61459 11.0625 3.375V8.625C11.0625 10.3854 9.63541 11.8125 7.875 11.8125H4.125C2.36459 11.8125 0.9375 10.3854 0.9375 8.625V3.375C0.9375 1.61459 2.36459 0.1875 4.125 0.1875H7.875ZM4.125 1.6875C3.19302 1.6875 2.4375 2.44302 2.4375 3.375V8.625C2.4375 9.55698 3.19302 10.3125 4.125 10.3125H7.875C8.80698 10.3125 9.5625 9.55698 9.5625 8.625V3.375C9.5625 2.44302 8.80698 1.6875 7.875 1.6875H4.125ZM6 4.875C7.24264 4.875 8.25 5.88236 8.25 7.125C8.25 8.36764 7.24264 9.375 6 9.375C4.75736 9.375 3.75 8.36764 3.75 7.125C3.75 5.88236 4.75736 4.875 6 4.875ZM6 6.375C5.58579 6.375 5.25 6.71079 5.25 7.125C5.25 7.53921 5.58579 7.875 6 7.875C6.41421 7.875 6.75 7.53921 6.75 7.125C6.75 6.71079 6.41421 6.375 6 6.375ZM6 2.625C6.41421 2.625 6.75 2.96079 6.75 3.375C6.75 3.78921 6.41421 4.125 6 4.125C5.58579 4.125 5.25 3.78921 5.25 3.375C5.25 2.96079 5.58579 2.625 6 2.625Z"
      fill="currentColor"
    />
  </g>
  <defs>
    <clipPath id="clip0_5220_433"><path fill="currentColor" d="M0 0H12V12H0z" /></clipPath>
  </defs>
</svg>

<svg xmlns="http://www.w3.org/2000/svg" width="12" height="12" fill="none" data-fui-icon="true" viewBox="0 0 12 12"><g clip-path="url(#a)"><path fill="currentColor" d="M7.875.188a3.187 3.187 0 0 1 3.188 3.187v5.25a3.19 3.19 0 0 1-3.188 3.188h-3.75A3.19 3.19 0 0 1 .938 8.625v-5.25A3.187 3.187 0 0 1 4.124.188zm-3.75 1.5c-.932 0-1.687.755-1.687 1.687v5.25c0 .932.755 1.688 1.687 1.688h3.75c.932 0 1.688-.756 1.688-1.688v-5.25c0-.932-.756-1.687-1.688-1.687zM6 4.874a2.25 2.25 0 1 1 0 4.5 2.25 2.25 0 0 1 0-4.5m0 1.5a.75.75 0 1 0 0 1.5.75.75 0 0 0 0-1.5m0-3.75a.75.75 0 1 1 0 1.5.75.75 0 0 1 0-1.5"/></g><defs><clipPath id="a"><path fill="currentColor" d="M0 0h12v12H0z"/></clipPath></defs></svg>
